X: 8053
T: Connie The Soldier
R: jig
M: 6/8
K: Dmajor
EAA ABd|cAG EFG|EFG EFG|EAF GED|
EAA ABd|cAG EFG|cBc ABG|FEC D3:|
f2d dcd|f2d dcd|fed efd|cAG A3|
fga efg|fed fed|cBc ABG|FEC D3:|

